X: 42495
T: What Brought You In There
R: reel
M: 4/4
K: Dmajor
FEDB, A,B,DE|FGEG FABA|FEDB, A,B,DE|~F2EG FB,~B,2|
FB,~B,2 A,B,DE|~F2ED FABA|FEDB, A,B,DE|~F2EG FDFA||
dBAd BAdB|A2FE FBBA|dBAd BAFB,|A,B,DE FDDA|
d2Ad BAdB|A3E FABA|dBAd ~b3f|afeg fddA||

